svgs/solid/face-astonished.svg

<svg xmlns="http://www.w3.org/2000/svg" viewBox="0 0 512 512"><!--! Font Awesome Pro 6.2.0 by @fontawesome - https://fontawesome.com License - https://fontawesome.com/license (Commercial License) Copyright 2022 Fonticons, Inc. --><path d="M512 256c0 141.4-114.6 256-256 256S0 397.4 0 256S114.6 0 256 0S512 114.6 512 256zM208 352v32c0 26.5 21.5 48 48 48s48-21.5 48-48V352c0-26.5-21.5-48-48-48s-48 21.5-48 48zm-31.6-96c17.7 0 32-14.3 32-32s-14.3-32-32-32s-32 14.3-32 32s14.3 32 32 32zm192-32c0-17.7-14.3-32-32-32s-32 14.3-32 32s14.3 32 32 32s32-14.3 32-32zM320 96c-8.8 0-16 7.2-16 16s7.2 16 16 16c33 0 60.1 18.7 68.7 27.3c6.2 6.2 16.4 6.2 22.6 0s6.2-16.4 0-22.6C398.6 120 363.8 96 320 96zM123.3 155.3C131.9 146.7 159 128 192 128c8.8 0 16-7.2 16-16s-7.2-16-16-16c-43.8 0-78.6 24-91.3 36.7c-6.2 6.2-6.2 16.4 0 22.6s16.4 6.2 22.6 0z"/></svg>

<svg xmlns="http://www.w3.org/2000/svg" viewBox="0 0 512 512"><!--! Font Awesome Pro 6.1.2 by @fontawesome - https://fontawesome.com License - https://fontawesome.com/license (Commercial License) Copyright 2022 Fonticons, Inc. --><path d="M0 256C0 114.6 114.6 0 256 0C397.4 0 512 114.6 512 256C512 397.4 397.4 512 256 512C114.6 512 0 397.4 0 256zM256 304C229.5 304 208 325.5 208 352V384C208 410.5 229.5 432 256 432C282.5 432 304 410.5 304 384V352C304 325.5 282.5 304 256 304zM176.4 192C158.7 192 144.4 206.3 144.4 224C144.4 241.7 158.7 256 176.4 256C194 256 208.4 241.7 208.4 224C208.4 206.3 194 192 176.4 192zM336.4 256C354 256 368.4 241.7 368.4 224C368.4 206.3 354 192 336.4 192C318.7 192 304.4 206.3 304.4 224C304.4 241.7 318.7 256 336.4 256zM208 112C208 103.2 200.8 96 192 96C186.2 96 180.4 96.38 174.8 97.13C146.6 100.9 121.1 113.6 101.1 132.3C94.62 138.3 94.28 148.5 100.3 154.9C106.3 161.4 116.5 161.7 122.9 155.7C138.4 141.2 157.8 131.7 178.1 128.9C183.2 128.3 187.6 128 192 128C200.8 128 208 120.8 208 112zM389.1 155.7C395.5 161.7 405.7 161.4 411.7 154.9C417.7 148.5 417.4 138.3 410.9 132.3C390.9 113.6 365.4 100.9 337.2 97.13C331.6 96.38 325.8 96 320 96C311.2 96 304 103.2 304 112C304 120.8 311.2 128 320 128C324.4 128 328.8 128.3 333 128.9C354.2 131.7 373.6 141.2 389.1 155.7z"/></svg>
